X:1
T:Fuggi dhe fuggi
T:Giammateo Asola
T:Source : Madrigali a due voci---Venetia---G.Vincenti---1587. Editor : André Vierendeels (21/04/17).
T:Notes Original clefs : C3 (Fuga di mezo tempo, una quinta piu bassa) Editorial accidentals above the staff Text by Gabriel Fiamma "Rime Spirituali"
T:Fuggi dhe fuggi
T:©
T:©
C:Giammateo Asola
Z:©
%%score [ 1 2 ]
L:1/8
Q:1/4=120
M:4/4
K:C
V:1 treble-8 nm="Tenor" snm="T"
V:2 bass nm="Bass" snm="B"
V:1
 g8 | e4 g4 | f4 e4 | d4 c2 c2 | d2 e2 f2 f2 | e4 d4 | z4 g4- | g2 f2 e4 | d2 d2 e2 c2 | d2 e2 f4 | %10
w: Fug-|gi dhe|fug- gi'o|stol- ta, que-|sta mor- te de|l'al- ma,|et|_ at- ten-|ta di Dio le|vo- ci'as- col-|
 e4 d4 | e2 f2 g4 | f4 e4 | d2 d2 e4 | z2 g2 f2 f2 | e2 de fd e2 | f2 g2 g2 f2 | d2 e3 f g2 | %18
w: ta, ch'a|que- sta bel-|la'e d'al-|ma Vir tu|sem- pre ti|chia- * * * * *|* ma, i suoi|ne- mi- ci'e- gli-|
 e4 d2 e2- | e2 z2 e4 | d2 c4 B2- | B2 A4 G2 | c4 B2 c2- | c2 z2 c4 | c2 d4 f2- | f2 e2 d4 | %26
w: a _ ma,|_ e|per moi qui|_ di- sce-|* * so,|_ si|mo- stro sem-|* pre d'al-|
 d2 e2 e2 d2- | d2 c4 z2 | d2 f2 f2 e2- | e2 d2 g4 | f2 g2 e2 d2- | d2 e4 z2 | g2 g2 f2 e2- | %33
w: to'a- mor' ac- ce-|* so,|si mo- stro sem-|* pre d'al-|to'a- mor' ac- ce-|* so,|si mo- stro sem-|
 e2 d4 e2 | c2 d2 B2 c2- | c2 B4 A2- | A2 G2 g2 g2 | f2 e4 d2- | d2 e2 f2 g2 | g2 f4 e2 | %40
w: * pre d'al-|to'a- mor'- ac- ce-||* so, si mo-|stro sem- pre|_ d'al- to'a- mor'|ac- se- so,|
 e2 d2 g4 | f2 e4 d2 | d2 g4 f2 | g8 |] %44
w: d'al- to'a- mor'|ac- ce- so,|ac- ce- *|so.|
V:2
 z8 | C8 | A,4 C4 | B,4 A,4 | G,4 F,2 F,2 | G,2 A,2 B,2 B,2 | A,4 G,4 | z4 C4- | C2 B,2 A,4 | %9
w: |Fug-|gi dhe|fug- gi'o|stol- ta, que-|sta mor- te de|l'al- ma,|et|_ at- ten-|
 G,2 G,2 A,2 F,2 | G,2 A,2 B,4 | A,4 G,4 | A,2 B,2 C4 | B,4 A,4 | G,2 G,2 A,4 | z2 C2 B,2 B,2 | %16
w: ta di Dio le|vo- ci'as- col-|ta, ch'a|que- sta bel-|la'e d'al-|ma Vir- tu|sem- pre ti|
 A,2 G,A, B,G, A,2 | B,2 C2 C2 B,2 | G,2 A,3 B, C2 | A,4 G,2 A,2- | A,2 z2 A,4 | G,2 F,4 E,2- | %22
w: chia- * * * * *|* ma, i suoi|ne- mi- ci'e- gli-|a _ ma,|_ e|per moi qui|
 E,2 D,4 C,2 | F,4 E,2 F,2- | F,2 z2 F,4 | F,2 G,4 B,2- | B,2 A,2 G,4 | G,2 A,2 A,2 G,2- | %28
w: _ di- sce-|* * so,|_ si|mo- stro sem-|* pre l'al-|to'a- mor' ac- se-|
 G,2 F,4 z2 | G,2 B,2 B,2 A,2- | A,2 G,2 C4 | B,2 C2 A,2 G,2- | G,2 A,4 z2 | C2 C2 B,2 A,2- | %34
w: * so,|so mo- stro sem-|* pre d'al-|tro'a- mo' ac- ce-|* so,|si mo- str sem-|
 A,2 G,4 A,2 | F,2 G,2 E,2 F,2- | F,2 E,4 D,2- | D,2 C,2 C2 C2 |"^#" B,2 A,4 G,2- | %39
w: * pre d'al-|to'a- mor' ac- ce-||* so, si mo-|stro sem- pre|
 G,2 A,2 B,2 C2 | C2 B,4 A,2 | A,2 G,2 C4 | B,4 A,4 | G,8 |] %44
w: n d'al- to'a- mor'|ac- se- son|d'al- to'a- mor'|ac- ce-|so.|

